public/images/img-advant-2.svg

<svg width="32" height="33" viewBox="0 0 32 33" fill="none" xmlns="http://www.w3.org/2000/svg">
<g clip-path="url(#clip0_317_7060)">
<path fill-rule="evenodd" clip-rule="evenodd" d="M4.98688 23.0152C7.4903 26.6847 11.0413 29.5148 15.1769 31.1363C15.7064 31.3407 16.293 31.3407 16.8226 31.1363C20.9618 29.5132 24.5154 26.6799 27.0189 23.0057C29.5227 19.3317 30.8603 14.988 30.8569 10.542V3.86775C30.8569 3.26153 30.616 2.68016 30.1874 2.2515C29.7588 1.82285 29.1773 1.58203 28.5712 1.58203H3.42829C2.82208 1.58203 2.2407 1.82285 1.81205 2.2515C1.38339 2.68016 1.14258 3.26153 1.14258 3.86775V10.5649C1.1438 15.007 2.48347 19.3457 4.98688 23.0152ZM19.4283 11.9512C19.4283 13.8447 17.8933 15.3797 15.9997 15.3797C14.1062 15.3797 12.5711 13.8447 12.5711 11.9512C12.5711 10.0576 14.1062 8.5226 15.9997 8.5226C17.8933 8.5226 19.4283 10.0576 19.4283 11.9512Z" fill="#E6F5FB"/>
<path d="M15.9999 15.3767C17.8934 15.3767 19.4284 13.8417 19.4284 11.9481C19.4284 10.0545 17.8934 8.51953 15.9999 8.51953C14.1063 8.51953 12.5713 10.0545 12.5713 11.9481C12.5713 13.8417 14.1063 15.3767 15.9999 15.3767Z" fill="white"/>
<path d="M16.8226 31.1363C16.293 31.3407 15.7064 31.3407 15.1769 31.1363C11.0413 29.5148 7.4903 26.6847 4.98688 23.0152C2.48347 19.3457 1.1438 15.007 1.14258 10.5649V3.86775C1.14258 3.26153 1.38339 2.68016 1.81205 2.2515C2.2407 1.82285 2.82208 1.58203 3.42829 1.58203H28.5712C29.1773 1.58203 29.7588 1.82285 30.1874 2.2515C30.616 2.68016 30.8569 3.26153 30.8569 3.86775V10.542C30.8603 14.988 29.5227 19.3317 27.0189 23.0057C24.5154 26.6799 20.9618 29.5132 16.8226 31.1363Z" stroke="#009CD9" stroke-width="2" stroke-linecap="round" stroke-linejoin="round"/>
<path d="M15.9999 15.3767C17.8934 15.3767 19.4284 13.8417 19.4284 11.9481C19.4284 10.0545 17.8934 8.51953 15.9999 8.51953C14.1063 8.51953 12.5713 10.0545 12.5713 11.9481C12.5713 13.8417 14.1063 15.3767 15.9999 15.3767Z" stroke="#009CD9" stroke-width="2" stroke-linecap="round" stroke-linejoin="round"/>
<path d="M16 21.0932V15.3789" stroke="#009CD9" stroke-width="2" stroke-linecap="round" stroke-linejoin="round"/>
</g>
<defs>
<clipPath id="clip0_317_7060">
<rect width="32" height="32" fill="white" transform="translate(0 0.4375)"/>
</clipPath>
</defs>
</svg>

<svg width="32" height="33" fill="none" xmlns="http://www.w3.org/2000/svg"><g clip-path="url(#clip0_317_7060)"><path fill-rule="evenodd" clip-rule="evenodd" d="M4.987 23.015a22.102 22.102 0 0010.19 8.121 2.28 2.28 0 001.646 0 22.1 22.1 0 0014.034-20.594V3.868a2.286 2.286 0 00-2.286-2.286H3.428a2.286 2.286 0 00-2.285 2.286v6.697a22.103 22.103 0 003.844 12.45zm14.441-11.064a3.429 3.429 0 11-6.857 0 3.429 3.429 0 016.857 0z" fill="#E6F5FB"/><path d="M16 15.377a3.429 3.429 0 100-6.857 3.429 3.429 0 000 6.857z" fill="#fff"/><path d="M16.823 31.136a2.285 2.285 0 01-1.646 0A22.102 22.102 0 011.143 10.565V3.868a2.286 2.286 0 012.285-2.286h25.143a2.286 2.286 0 012.286 2.286v6.674a22.102 22.102 0 01-14.034 20.594z" stroke="#009CD9" stroke-width="2" stroke-linecap="round" stroke-linejoin="round"/><path d="M16 15.377a3.429 3.429 0 100-6.857 3.429 3.429 0 000 6.857zm0 5.716V15.38" stroke="#009CD9" stroke-width="2" stroke-linecap="round" stroke-linejoin="round"/></g><defs><clipPath id="clip0_317_7060"><path fill="#fff" transform="translate(0 .438)" d="M0 0h32v32H0z"/></clipPath></defs></svg>
